svg/file/package_line.svg

<?xml version="1.0" encoding="UTF-8"?>
<svg width="24px" height="24px" viewBox="0 0 24 24" version="1.1" xmlns="http://www.w3.org/2000/svg" xmlns:xlink="http://www.w3.org/1999/xlink">
    <title>package_line</title>
    <g id="Icon" stroke="none" stroke-width="1" fill="none" fill-rule="evenodd">
        <g id="File" transform="translate(-672.000000, -384.000000)">
            <g id="package_line" transform="translate(672.000000, 384.000000)">
                <path d="M24,0 L24,24 L0,24 L0,0 L24,0 Z M12.5935,23.2578 L12.5819,23.2595 L12.5109,23.295 L12.4919,23.2987 L12.4767,23.295 L12.4057,23.2595 C12.3958,23.2564 12.387,23.259 12.3821,23.2649 L12.378,23.2758 L12.3609,23.7031 L12.3659,23.7235 L12.3769,23.7357 L12.4805,23.8097 L12.4953,23.8136 L12.5071,23.8097 L12.6107,23.7357 L12.6233,23.7197 L12.6267,23.7031 L12.6096,23.2758 C12.6076,23.2657 12.601,23.2593 12.5935,23.2578 Z M12.8584,23.1453 L12.8445,23.1473 L12.6598,23.2397 L12.6499,23.2499 L12.6472,23.2611 L12.6651,23.6906 L12.6699,23.7034 L12.6784,23.7105 L12.8793,23.8032 C12.8914,23.8069 12.9022,23.803 12.9078,23.7952 L12.9118,23.7812 L12.8777,23.1665 C12.8753,23.1546 12.8674,23.147 12.8584,23.1453 Z M12.143,23.1473 C12.1332,23.1424 12.1222,23.1453 12.1156,23.1526 L12.1099,23.1665 L12.0758,23.7812 C12.0751,23.7927 12.0828,23.8019 12.0926,23.8046 L12.1083,23.8032 L12.3092,23.7105 L12.3186,23.7024 L12.3225,23.6906 L12.3404,23.2611 L12.3372,23.2485 L12.3278,23.2397 L12.143,23.1473 Z" id="MingCute" fill-rule="nonzero"></path>
                <path d="M2.17194,4.43937 C2.35797,4.1646 2.66818,4 3.00000055,4 L14.0000005,4 C14.4089,4 14.7766,4.24895 14.9285,4.62861 L15.6791,6.50527 L16.0194,4.80388 C16.1129,4.33646 16.5233,4 17.0000005,4 L21.0000005,4 C21.2996,4 21.5834,4.13432 21.7733,4.36601 C21.9633,4.5977 22.0393,4.90234 21.9806,5.19612 L21.0000005,10.099 L21.0000005,18 C21.0000005,19.1046 20.1046,20 19.0000005,20 L6.00000055,20 C4.89543,20 4.00000055,19.1046 4.00000055,18 L4.00000055,10.1926 L2.07153,5.37139 C1.94829,5.0633 1.98591,4.71414 2.17194,4.43937 Z M6,11 L6,18 L15,18 L15,11 L6,11 Z M17,11 L17,18 L19,18 L19,11 L17,11 Z M19.1802,9 L19.7802,6 L17.8198,6 L17.2198,9 L19.1802,9 Z M14.523,9 L13.323,6 L4.47704,6 L5.67704,9 L14.523,9 Z M11,16 C11,15.4477 11.4477,15 12,15 L13,15 C13.5523,15 14,15.4477 14,16 C14,16.5523 13.5523,17 13,17 L12,17 C11.4477,17 11,16.5523 11,16 Z" id="形状" fill="#09244B"></path>
            </g>
        </g>
    </g>
</svg>

<svg xmlns="http://www.w3.org/2000/svg" width="24" height="24"><g fill="none" fill-rule="evenodd"><path d="M24 0v24H0V0h24ZM12.594 23.258l-.012.002-.071.035-.02.004-.014-.004-.071-.036c-.01-.003-.019 0-.024.006l-.004.01-.017.428.005.02.01.013.104.074.015.004.012-.004.104-.074.012-.016.004-.017-.017-.427c-.002-.01-.009-.017-.016-.018Zm.264-.113-.014.002-.184.093-.01.01-.003.011.018.43.005.012.008.008.201.092c.012.004.023 0 .029-.008l.004-.014-.034-.614c-.003-.012-.01-.02-.02-.022Zm-.715.002a.023.023 0 0 0-.027.006l-.006.014-.034.614c0 .012.007.02.017.024l.015-.002.201-.093.01-.008.003-.011.018-.43-.003-.012-.01-.01-.184-.092Z"/><path fill="#09244B" d="M2.172 4.44A1 1 0 0 1 3 4h11a1 1 0 0 1 .928.629l.751 1.876.34-1.701A1 1 0 0 1 17 4h4a1 1 0 0 1 .98 1.196L21 10.1V18a2 2 0 0 1-2 2H6a2 2 0 0 1-2-2v-7.807L2.072 5.37a1 1 0 0 1 .1-.932ZM6 11v7h9v-7H6Zm11 0v7h2v-7h-2Zm2.18-2 .6-3h-1.96l-.6 3h1.96Zm-4.657 0-1.2-3H4.477l1.2 3h8.846ZM11 16a1 1 0 0 1 1-1h1a1 1 0 1 1 0 2h-1a1 1 0 0 1-1-1Z"/></g></svg>
